!!!OTL: ES WAR EIN REICHER KAUFMANNSSOHN
!!!ARE: Europa, Mitteleuropa, Deutschland, Franken, Wuerzburg
!!!SCT: E1398
!!!YEM: Copyright 1995, estate of Helmut Schaffrath.
**kern
*ICvox
*Ivox
*M6/8
*k[b-]
*F:
{16f
16a
=1
4cc
8cc
4cc
8cc
=2
4cc
8a
4a}
{8f
=3
8.dd
16dd
8dd
8ff
8ee
8dd
=4
8dd
8cc
8cc
4a}
{8cc
=5
8.cc
16b-
8b-
4g}
{8dd
=6
8.dd
16cc
8cc
4a
16cc
16cc
=7
4cc
4.r}
{8cc
=8
8.cc
16b-
8b-
4g}
{8dd
=9
8.dd
16cc
8cc
4a
16cc
16cc
=10
4cc
4.r}
==
!!!AGN: Staende -, Soldaten - Lied
!!!ONB: ESAC (Essen Associative Code) Database: ERK3
!!!AMT: compound duple
!!!AIN: vox
!!!EED: Helmut Schaffrath
!!!EEV: 1.0
*-
